packages/foundations/assets/icons/functional/images/communication/chat_16.svg

<svg width="16" height="16" viewBox="0 0 16 16" fill="none" xmlns="http://www.w3.org/2000/svg">
<g clip-path="url(#clip0_2204_2152)">
<path fill-rule="evenodd" clip-rule="evenodd" d="M1.59998 13.6819C1.59998 14.0879 2.00582 14.3688 2.39606 14.3688C2.59902 14.3688 2.7863 14.3063 2.94238 14.1503L4.81558 12.2615C4.97166 12.0898 5.2683 12.0312 5.43998 12.0312H12.4956C13.5258 12.0312 14.4 11.0439 14.4 9.99811V3.47323C14.4 2.47419 13.479 1.63123 12.4176 1.63123H3.66046C2.47414 1.63123 1.59998 2.55219 1.59998 3.59811V13.6819ZM3.20782 11.6527L3.19998 3.23123H12.8V10.4312H5.3307C4.6907 10.4312 4.19118 10.6693 3.75414 11.1063L3.20782 11.6527ZM4.79998 7.23123V8.83123H11.2V7.23123H4.79998ZM4.79998 4.83123V6.43123L11.2 6.42347V4.83123H4.79998Z" fill="#1A1C1F"/>
</g>
<defs>
<clipPath id="clip0_2204_2152">
<rect width="16" height="16" fill="white"/>
</clipPath>
</defs>
</svg>

<svg xmlns="http://www.w3.org/2000/svg" width="16" height="16" fill="none"><g clip-path="url(#a)"><path fill="#1A1C1F" fill-rule="evenodd" d="M1.6 13.682c0 .406.406.687.796.687.203 0 .39-.063.546-.219l1.874-1.889c.156-.171.452-.23.624-.23h7.056c1.03 0 1.904-.987 1.904-2.033V3.473c0-.999-.921-1.842-1.982-1.842H3.66c-1.186 0-2.06.921-2.06 1.967zm1.608-2.03L3.2 3.233h9.6v7.2H5.33c-.64 0-1.139.237-1.576.674zM4.8 7.233v1.6h6.4v-1.6zm0-2.4v1.6l6.4-.009V4.831z" clip-rule="evenodd"/></g><defs><clipPath id="a"><path fill="#fff" d="M0 0h16v16H0z"/></clipPath></defs></svg>
